X: 11761
Q: "Slowly."
M: C
L: 1/8
K: Dm
f>e |\
d2d2 d3A | (d^cd)e fefd | efga gfed | e2c2- c2f>e |\
d2d2 d3A | d^cde fefd | efgb afge | f2d2- d2f>e |
d2D2 d3e | (fef)g agfd | efge agaf | e2c2- c2ag |\
fgag f>efd | efgf {g}ede^c | dBAG FdE^c | d2D2-D2 |]
|: F>E |\
ag |\
f>ede fgag | fd^cd DdFd | Adfd f>gaf | efge c2ag |\
f>ede fgag | fd^cd Adfd | egab agfe | f2d2- d2ag |
f>ede fgag | fd^cd DdFd | Adfd f>gaf | efge c2ag |\
fdba geag | fdgf ed^cA | dBAG FdE^c | d2D2-D2 |]


